X:1
T:Title
%%score 1 { 2 | 3 }
L:1/8
Q:1/4=90
M:3/4
K:G
V:1 treble nm="Grand Piano, Soprano"
V:2 bass nm="Choir Pad, Christ the Savior Born"
V:3 bass 
V:1
 [B,D]>[B,D] [DG]3 [DG] | (3[G-B][GA][DG] [Fd]2 [Fd]2 | (3[Fd]G[Ad] [Gd]3 [DB] | %3
w: By~Hubert~Platt~Main * * *|||
 (3[^C-B][CA][CG] [DB]2 [DA]2 | [Fd]>[Dd] [Fd]4 | [E^c]2 [Fd]4 | [FA]>[FA] [FA]3 [DF] | %7
w: ||||
 (3[DF][EG][FA] [GB]2 [FA]2 | [Ac]>[Ac] [Ac]3 [FA] | (3[Bd][Ac][GB] [GB]2 [FA]2 | %10
w: |||
 (3[G-d]G[Fd] [Gd]3 [DB] | (3[D-B][DA][DG] [EG]2 [CE]2 | D>[DG] [GB]4 | [FA]2 [GB]4 | %14
w: ||||
 (3[G-d]G[Fd] [Gd]3 [DB] | (3[D-B][DA][DG] [EG]2 [CE]2 | D>[DG] [GB]4 | [FA]2 G4- | G4 z2 |] %19
w: |||||
V:2
 G,>G, B,3 B, | (3DCB, A,2 A,2 | (3A,B,C B,3 G, | (3:2:2G,2 G, G,2 F,2 | A,>A, A,4 | A,2 A,4 | %6
 A,>A, A,3 F, | (3F,G,A, B,2 A,2 | C>C C3 A, | (3DC[K:bass]B, B,2 A,2 | (3B,G,A, B,3 G, | %11
 (3G,F,G, G,2 G,2 | G,>B,[K:treble] D4 | D2 D4 | (3B,G,[K:bass]A, B,3 G, | (3G,F,G, G,2 G,2 | %16
 G,>B, D4 | C2 B,4- | B,4 z2 |] %19
V:3
 z2 G,3 G, | (3:2:2G,2 G, D,2 D,2 | (3:2:2D,2 D, G,4 | (3:2:2E,2 E, D,2 D,2 | D,>F, z2 z2 | %5
 A,,2 D,4 | D,>D, D,3 D, | (3:2:2D,2 D, D,2 D,2 | D,>D, D,3 D, | (3:2:2D,2 D, D,2 D,2 | %10
 (3G,,B,,D, G,3 G,, | (3G,,A,,B,, C,2 C,2 | B,,>G,, D,4 | D,2 G,4 | (3G,,B,,D, G,3 G,, | %15
 (3G,,A,,B,, C,2 C,2 | B,,>G,, D,4 | D,2 G,,4- | G,,4 z2 |] %19

